assets/images/ac2.svg

<svg width="31" height="31" viewBox="0 0 31 31" fill="none" xmlns="http://www.w3.org/2000/svg">
<rect width="31" height="31" rx="15.5" fill="#EF3124"/>
<path d="M14.2847 15.7617C14.7663 15.7617 15.2913 15.8085 15.6509 16.165C16.0116 16.5233 16.0581 17.0465 16.0581 17.5234V19.7725C16.0581 20.2496 16.012 20.7735 15.6509 21.1318C15.2913 21.4885 14.7664 21.5342 14.2847 21.5342H11.2437C10.762 21.5342 10.2369 21.4885 9.87744 21.1318C9.5167 20.7735 9.47022 20.2495 9.47021 19.7725V17.5234C9.47026 17.0465 9.51677 16.5233 9.87744 16.165C10.2369 15.8083 10.7619 15.7617 11.2437 15.7617H14.2847ZM20.9702 16.583C21.2786 16.583 21.5288 16.8332 21.5288 17.1416C21.5285 19.5669 19.5665 21.5293 17.1411 21.5293C16.9401 21.5293 16.754 21.4209 16.6548 21.2461C16.5559 21.0712 16.5593 20.856 16.6626 20.6836L17.2368 19.7266C17.3955 19.4622 17.738 19.3766 18.0024 19.5352C18.2431 19.6797 18.3342 19.9759 18.229 20.2275C19.5015 19.7799 20.4124 18.5686 20.4126 17.1416C20.4126 16.8333 20.662 16.5832 20.9702 16.583ZM10.5874 19.7725C10.5874 20.2452 10.6584 20.3322 10.6646 20.3389C10.6706 20.3446 10.758 20.4169 11.2437 20.417H14.2847C14.769 20.417 14.8572 20.3451 14.8638 20.3389C14.8664 20.3362 14.9409 20.2579 14.9409 19.7725V18.8271H10.5874V19.7725ZM11.2437 16.8789C10.7613 16.8789 10.6717 16.9504 10.6646 16.957C10.661 16.9607 10.5875 17.0417 10.5874 17.5234V17.71H14.9409V17.5234C14.9408 17.0385 14.8664 16.9597 14.8638 16.957C14.8542 16.9486 14.7602 16.8789 14.2847 16.8789H11.2437ZM19.7554 9.4707C20.2371 9.4707 20.762 9.51735 21.1216 9.87402C21.4824 10.2323 21.5288 10.7554 21.5288 11.2324V13.4814C21.5288 13.9586 21.4827 14.4825 21.1216 14.8408C20.762 15.1974 20.237 15.2432 19.7554 15.2432H16.7144C16.2327 15.2431 15.7076 15.1975 15.3481 14.8408C14.9873 14.4825 14.9409 13.9585 14.9409 13.4814V11.2324C14.9409 10.7555 14.9876 10.2323 15.3481 9.87402C15.7076 9.51726 16.2326 9.47073 16.7144 9.4707H19.7554ZM13.8579 9.4707C14.059 9.4707 14.2451 9.57904 14.3442 9.75391C14.4433 9.92889 14.4408 10.1439 14.3374 10.3164L13.7632 11.2744C13.6045 11.5386 13.2609 11.6243 12.9966 11.4658C12.756 11.3213 12.6649 11.0241 12.77 10.7725C11.4978 11.2202 10.5876 12.4316 10.5874 13.8584C10.5874 14.1668 10.3372 14.417 10.0288 14.417C9.7206 14.4168 9.47023 14.1667 9.47021 13.8584C9.47042 11.4333 11.4328 9.47114 13.8579 9.4707ZM16.0581 13.4814C16.0581 13.9582 16.1301 14.0425 16.1353 14.0479C16.1413 14.0536 16.2287 14.1259 16.7144 14.126H19.7554C20.2357 14.126 20.3265 14.0551 20.3345 14.0479C20.3372 14.0452 20.4116 13.9669 20.4116 13.4814V12.5352H16.0581V13.4814ZM16.7144 10.5879C16.2321 10.5879 16.1424 10.6594 16.1353 10.666C16.13 10.6716 16.0581 10.7566 16.0581 11.2324V11.418H20.4116V11.2324C20.4116 10.7472 20.3372 10.6687 20.3345 10.666C20.3258 10.6582 20.2334 10.5879 19.7554 10.5879H16.7144Z" fill="#EFEFF4"/>
</svg>

<svg xmlns="http://www.w3.org/2000/svg" width="31" height="31" fill="none"><rect width="31" height="31" fill="#EF3124" rx="15.5"/><path fill="#EFEFF4" d="M14.285 15.762c.481 0 1.006.046 1.366.403s.407.882.407 1.358v2.25c0 .477-.046 1-.407 1.359-.36.356-.885.402-1.366.402h-3.041c-.482 0-1.007-.046-1.367-.402-.36-.359-.407-.883-.407-1.36v-2.249c0-.476.047-1 .407-1.358.36-.357.885-.403 1.367-.403zm6.685.821c.309 0 .559.25.559.559a4.385 4.385 0 0 1-4.388 4.387.56.56 0 0 1-.478-.845l.574-.957a.558.558 0 0 1 .992.5 3.27 3.27 0 0 0 2.184-3.085c0-.309.249-.559.557-.559m-10.383 3.19c0 .472.071.56.078.566.006.006.093.078.579.078h3.04c.485 0 .573-.072.58-.078.002-.003.077-.081.077-.566v-.946h-4.354zm.657-2.894c-.483 0-.572.071-.58.078-.003.004-.076.085-.077.566v.187h4.354v-.187c0-.485-.075-.563-.077-.566-.01-.008-.104-.078-.58-.078zm8.511-7.408c.482 0 1.007.046 1.367.403s.407.881.407 1.358v2.25c0 .477-.046 1-.407 1.359-.36.356-.885.402-1.367.402h-3.04c-.482 0-1.007-.046-1.367-.402-.36-.358-.407-.882-.407-1.36v-2.249c0-.476.047-1 .407-1.358.36-.357.885-.403 1.366-.403zm-5.897 0a.56.56 0 0 1 .48.845l-.575.958a.558.558 0 0 1-.993-.502 3.27 3.27 0 0 0-2.183 3.086.559.559 0 0 1-1.117 0 4.386 4.386 0 0 1 4.388-4.387m2.2 4.01c0 .477.072.562.077.567.006.006.094.078.58.078h3.04c.48 0 .572-.07.58-.078.002-.003.077-.081.077-.567v-.946h-4.354zm.656-2.893c-.482 0-.572.071-.579.078-.005.006-.077.09-.077.566v.186h4.354v-.186c0-.485-.075-.563-.078-.566-.008-.008-.1-.078-.579-.078z"/></svg>
